files/resources/svgs/general/o-arrow-left-on-rectangle.svg

<svg width="24" height="24" viewBox="0 0 24 24" fill="none" xmlns="http://www.w3.org/2000/svg">
<path d="M15.75 9V5.25C15.75 4.00736 14.7426 3 13.5 3L7.5 3C6.25736 3 5.25 4.00736 5.25 5.25L5.25 18.75C5.25 19.9926 6.25736 21 7.5 21H13.5C14.7426 21 15.75 19.9926 15.75 18.75V15M12 9L9 12M9 12L12 15M9 12L21.75 12" stroke="#0F172A" stroke-width="1.5" stroke-linecap="round" stroke-linejoin="round"/>
</svg>

<svg xmlns="http://www.w3.org/2000/svg" fill="none" viewBox="0 0 24 24" stroke-width="1.5" stroke="currentColor" aria-hidden="true">
  <path stroke-linecap="round" stroke-linejoin="round" d="M15.75 9V5.25A2.25 2.25 0 0013.5 3h-6a2.25 2.25 0 00-2.25 2.25v13.5A2.25 2.25 0 007.5 21h6a2.25 2.25 0 002.25-2.25V15M12 9l-3 3m0 0l3 3m-3-3h12.75"/>
</svg>
